X:61
T:Appelbo Gnglt
R:gnglt
C:Traditional Swedish Walking Tune
M:4/4
L:1/8
Q:1/4=105
K:G
|: D2 | "G"G3D G2B2 | d4 d2Bc | d4d2e2 | "Am"(cd)cB A2AB |
 "D7"c2cd e2dc | "G"(Bc)BA G2FG | "D7"(AB)AF D2EF | "G"G4- G2 :|
|: Bd | "G"g2 g2 g2 fe | "D7"f2 f2 f2 d2 | "C"e2e2 (eg)fe | "G"e2d^c d2cB |
 "D7"(cd)cB A2GA | "G"(Bc)BA G2FG | "D7"(AB)AF D2EF | "G"G4- G2 :|
